symbols/web/table_bar/materialsymbolssharp/table_bar_wght200fill1_24px.svg

<svg xmlns="http://www.w3.org/2000/svg" height="24" width="24"><path d="m6.725 19.025 1.625-4h3.15V10.2q-3.425-.05-5.737-.85Q3.45 8.55 3.45 7.5q0-1.15 2.475-1.925Q8.4 4.8 12 4.8t6.075.775Q20.55 6.35 20.55 7.5q0 1.075-2.325 1.862-2.325.788-5.725.838v4.825h3.15l1.625 4h-1.05l-1.2-3h-6.05l-1.2 3Z"/></svg>

<svg xmlns="http://www.w3.org/2000/svg" height="24" width="24"><path d="M6.725 19.025 8.35 15.025H11.5V10.2Q8.075 10.15 5.763 9.35Q3.45 8.55 3.45 7.5Q3.45 6.35 5.925 5.575Q8.4 4.8 12 4.8Q15.6 4.8 18.075 5.575Q20.55 6.35 20.55 7.5Q20.55 8.575 18.225 9.362Q15.9 10.15 12.5 10.2V15.025H15.65L17.275 19.025H16.225L15.025 16.025H8.975L7.775 19.025Z"/></svg>
